X: 5138
T: Bridle, The
R: waltz
M: 3/4
K: Fmajor
AB=B|c4 cfe_e|^c4 d=ef^f|g4 gab=b|c'2 =bc' f'AB=B|
c2 =Bc c'gfe|d2 ^cd e'd'_bg|f/=c/=B/c/ d/c/f/e/|a/g/d'/=c'/ g_bde|
f4 fefg|A4 AfeA|B4 B=Bcd|E4 EdcE|
F4 z e fg|A/c/f/c/ a/f/c'/a/ _e'/c'/a/f/ g/=e/c/f/|B4 B=Bcd|E/G/_B/G/ d/B/g/e/ _b/g/e/B/ d/B/G/c/|
f4 fdge|f4 fDGE|F2 C2 F2 C2|F2 A,2 F2 A,2|F4||

